X: 17743
T: Hommage A Andre Alain
R: reel
M: 4/4
K: Gmajor
G,2|:B,2B,2 B,B,A,G,|B,2D2 zDE|GGFG AAGA|B2A2ABAE|
B,2D2 CB,A,G,|B,2D2 zE2|GGFG AAGA|B2A2 G2D2:|
|:G2A2 z2 BB B2 AA|A2 GG G2 E2|z2 DD D2 CB,|A,2G,2B,2D2|
z2 DD D2 CB,|A,2G,2B,2D2|D2G2FGFD|F2A2G2D2:|

